X:2
T:Minuet
%%gchordfont Times-Bold 12
C:Ludwig van Beethoven
O:Germany
R:Minuet
Z:Transcribed by Frank Nordberg - http://www.musicaviva.com
%abc2ps version. A version suitable for BarFly is also available.
M:3/4
L:1/4
K:G
V:1
.d|.b.c'.d'|(d'>bg)|.f.g.a|(a>fd)|(g/f/g/a/b)|
w: mf ||||| cresc.
V:2
z|"sempre staccato"B/d/B/d/B/d/|B/d/B/d/B/d/|c/d/c/d/c/d/|c/d/c/d/c/d/|B z G|
